X:204
T: ES MARSCHIRTEN DREI REGMENTER WOHL UEBER DEN RHEIN
N: Z0203
O: Europa, Mitteleuropa, Deutschland, Anclam
R: Soldaten -, Jaeger - Lied
M: 4/4
L: 1/8
K: G
DD | DGGGG2Ac | B2AAG2
DD | DAAAAABd | c2B2A2
dc | BBBBBdcB | AGFGA2
D2 | BABcdcBA | B2A2G2

@@@ Tune index: 9962
